X:2
T:The Idle Road
C:Traditional
S:Davy Muir, Glasgow
N:Play two times through
N:The Armagh Set, figure 2, tune 2 of 2
Z:Gordon Turnbull, Edinburgh
Z:gturnbull@theflow.org.uk
Z:http://www.theflow.org.uk
R:Jig
M:6/8
L:1/8
K:Dmix
DBB Dcc | DBB c2 e | dBG FGA  | BGB AFD |
DBB Dcc | DBB c2 e | dBG FGA  | BGG G3 :||
Ggg efg | fed cAF | Ggg gfg | afd cAF |
DBB Dcc | DBB c2 e | dBG FGA  | BGG G3 :||
